docs/figs/4-regions-1.svg

<svg class="typst-doc" viewBox="0 0 595.2755905511812 841.8897637795276" width="595.2755905511812pt" height="841.8897637795276pt" xmlns="http://www.w3.org/2000/svg" xmlns:xlink="http://www.w3.org/1999/xlink" xmlns:h5="http://www.w3.org/1999/xhtml">
    <path class="typst-shape" fill="#ffffff" fill-rule="nonzero" d="M 0 0v 841.8898 h 595.2756 v -841.8898 Z "/>
    <g>
        <g class="typst-group">
            <g>
                <path class="typst-shape" fill="none" stroke="#000000" stroke-width="1" stroke-linecap="butt" stroke-linejoin="miter" stroke-miterlimit="4" transform="matrix(1 0 0 1 70.86614173228347 420.9448818897638)" d="M 0 0h 453.5433 "/>
                <g class="typst-group" transform="matrix(1 0 0 1 65.86614173228347 415.9448818897638)">
                    <g>
                        <path class="typst-shape" fill="url(#p1E9398BAB0C40EFC56122C7413D0F6DB)" fill-rule="nonzero" stroke="#ff4136" stroke-width="1" stroke-linecap="butt" stroke-linejoin="miter" stroke-miterlimit="4" d="M 0 0v 10 h 463.5433 v -10 Z "/>
                    </g>
                </g>
                <path class="typst-shape" fill="none" stroke="#000000" stroke-width="1" stroke-linecap="butt" stroke-linejoin="miter" stroke-miterlimit="4" transform="matrix(1 0 0 1 297.6377952755906 70.86614173228347)" d="M 0 0v 700.1575 "/>
                <g class="typst-group" transform="matrix(1 0 0 1 292.6377952755906 65.86614173228347)">
                    <g>
                        <path class="typst-shape" fill="url(#p1E9398BAB0C40EFC56122C7413D0F6DB)" fill-rule="nonzero" stroke="#ff4136" stroke-width="1" stroke-linecap="butt" stroke-linejoin="miter" stroke-miterlimit="4" d="M 0 0v 710.1575 h 10 v -710.1575 Z "/>
                    </g>
                </g>
                <g class="typst-group" transform="matrix(1 0 0 1 70.86614173228347 70.86614173228347)">
                    <g>
                        <path class="typst-shape" fill="url(#p509D8B23F98B314EBC75F8528C4C0704)" fill-rule="nonzero" stroke="#2ecc40" stroke-width="1" stroke-linecap="butt" stroke-linejoin="miter" stroke-miterlimit="4" d="M 0 0v 345.07874 h 221.77165 v -345.07874 Z "/>
                    </g>
                </g>
                <g class="typst-group" transform="matrix(1 0 0 1 302.6377952755906 70.86614173228347)">
                    <g>
                        <path class="typst-shape" fill="url(#p509D8B23F98B314EBC75F8528C4C0704)" fill-rule="nonzero" stroke="#2ecc40" stroke-width="1" stroke-linecap="butt" stroke-linejoin="miter" stroke-miterlimit="4" d="M 0 0v 345.07874 h 221.77165 v -345.07874 Z "/>
                    </g>
                </g>
                <g class="typst-group" transform="matrix(1 0 0 1 70.86614173228347 425.9448818897638)">
                    <g>
                        <path class="typst-shape" fill="url(#p509D8B23F98B314EBC75F8528C4C0704)" fill-rule="nonzero" stroke="#2ecc40" stroke-width="1" stroke-linecap="butt" stroke-linejoin="miter" stroke-miterlimit="4" d="M 0 0v 345.07874 h 221.77165 v -345.07874 Z "/>
                    </g>
                </g>
                <g class="typst-group" transform="matrix(1 0 0 1 302.6377952755906 425.9448818897638)">
                    <g>
                        <path class="typst-shape" fill="url(#p509D8B23F98B314EBC75F8528C4C0704)" fill-rule="nonzero" stroke="#2ecc40" stroke-width="1" stroke-linecap="butt" stroke-linejoin="miter" stroke-miterlimit="4" d="M 0 0v 345.07874 h 221.77165 v -345.07874 Z "/>
                    </g>
                </g>
            </g>
        </g>
        <g class="typst-text" transform="matrix(1 0 0 -1 161.12196850393698 274.93051181102356)">
            <use xlink:href="#g8BED6C2345E954A54ADA3F149753F67A" x="0" y="0" fill="#000000" fill-rule="nonzero"/>
        </g>
        <g class="typst-text" transform="matrix(1 0 0 -1 387.8936220472441 274.93051181102356)">
            <use xlink:href="#g8759E52C7AEC719CDBFD9819BD39DD5C" x="0" y="0" fill="#000000" fill-rule="nonzero"/>
        </g>
        <g class="typst-text" transform="matrix(1 0 0 -1 161.12196850393698 625.0092519685039)">
            <use xlink:href="#gDC5985C84BD7F19236DCC13495E56EA5" x="0" y="0" fill="#000000" fill-rule="nonzero"/>
        </g>
        <g class="typst-text" transform="matrix(1 0 0 -1 387.8936220472441 625.0092519685039)">
            <use xlink:href="#gD478E75CA6D13CA40B2AE34E7EA3FF18" x="0" y="0" fill="#000000" fill-rule="nonzero"/>
        </g>
    </g>
    <defs id="glyph">
        <symbol id="g8BED6C2345E954A54ADA3F149753F67A" overflow="visible">
            <path d="M 0 0m 33.030003 10.9800005 v 32.49 c 0 4.7700005 0.7199974 9.900002 0.7199974 9.900002 c 0 1.1699982 -0.7199974 1.5299988 -1.5299988 1.5299988 c -0.8999996 0 -2.4300003 -0.3600006 -4.5 -1.3499985 c -5.49 -2.5200005 -11.610001 -4.6800003 -19.44 -7.920002 c 0.0899992 -1.5299988 0.7199993 -2.9700012 1.9799995 -3.869999 c 4.8600006 2.0699997 8.1 2.25 9.360001 2.25 c 1.1700001 0 1.7099991 -0.3600006 1.7099991 -4.8600006 v -28.170002 c 0 -7.4700003 -4.3199997 -7.8300004 -9.2699995 -8.1 c -0.8999996 -0.53999996 -0.8999996 -2.52 0 -3.0600002 c 7.38 0.09 11.61 0.18 15.21 0.18 c 3.6000004 0 7.6500015 -0.09 15.030003 -0.18 c 0.8999977 0.54 0.8999977 2.5200002 0 3.0600002 c -4.950001 0.26999998 -9.27 0.6300001 -9.27 8.1 Z "/>
        </symbol>
        <symbol id="g8759E52C7AEC719CDBFD9819BD39DD5C" overflow="visible">
            <path d="M 0 0m 4.5 40.86 c 0 -2.25 2.0700002 -4.8600006 5.3100004 -4.8600006 c 2.6099997 0 5.2200003 1.9800034 5.2200003 4.7700005 c 0 0.45000076 -0.1800003 1.0800018 -0.4499998 1.8899994 c -0.27000046 0.63000107 -0.53999996 1.3500023 -0.53999996 2.3400002 c 0 2.0700035 3.1499996 6.210003 7.4699993 6.210003 c 4.59 0 7.7400017 -5.670002 7.7400017 -11.07 c 0 -6.0300026 -0.3600006 -9.900002 -5.130001 -14.400002 l -7.6499996 -7.290001 c -11.160001 -10.620001 -12.690001 -13.14 -12.960001 -15.570001 l 0.3599999 -2.88 h 34.74 c 1.0800018 3.42 2.1599998 9.63 2.790001 14.76 c -1.1699982 0.53999996 -1.9799995 0.9000006 -4.049999 0.9000006 c -1.9799995 -6.120001 -4.59 -8.550001 -8.640001 -8.550001 h -11.700001 c 0.27000046 2.8800006 1.1700001 5.31 4.1400013 8.01 l 5.3099995 4.8600006 c 10.710001 9.9 14.309999 12.059999 14.309999 20.429998 c 0 9.360001 -7.919998 14.490002 -17.189999 14.490002 c -12.870002 0 -19.080002 -8.459999 -19.080002 -14.040001 Z "/>
        </symbol>
        <symbol id="gDC5985C84BD7F19236DCC13495E56EA5" overflow="visible">
            <path d="M 0 0m 22.320002 51.120003 c 3.7799988 0 5.67 -2.1599998 5.67 -6.3899994 c 0 -6.84 -5.4900017 -12.330002 -13.770001 -14.220001 l 0.6300001 -3.6000004 c 1.8899994 0.539999 2.9700012 0.7199993 4.3199997 0.7199993 c 4.6800003 0 11.250002 -1.3500004 11.250002 -12.150001 c 0 -10.35 -6.120001 -12.6 -9.450001 -12.6 c -3.5100002 0 -5.4000006 2.25 -6.5700006 3.7800002 c -0.9899998 1.3499999 -2.5200005 3.3300004 -5.8500004 3.3300004 c -2.79 0 -4.41 -2.3400006 -4.41 -3.8700004 c 0 -1.8900003 0.9899998 -3.2400002 2.9699998 -4.2300005 c 3.2400002 -1.6200001 8.01 -2.7900002 12.42 -2.7900002 c 10.620001 0 22.500002 8.37 22.500002 20.880001 c 0 6.4799995 -4.2299995 12.15 -11.790001 12.690001 c 3.959999 1.9799995 8.369999 6.75 8.369999 12.240002 c 0 3.959999 -2.1599998 9.989998 -14.58 9.989998 c -9.36 0 -13.14 -3.1499977 -16.02 -5.7599983 c -1.98 -1.800003 -2.52 -4.2299995 -2.52 -5.4000015 c 0 -1.2599983 0.4499998 -3.3300018 3.4200006 -3.3300018 c 3.96 0 5.04 2.0700035 5.58 4.950001 c 0.9899998 5.4900017 4.7699995 5.760002 7.830001 5.760002 Z "/>
        </symbol>
        <symbol id="gD478E75CA6D13CA40B2AE34E7EA3FF18" overflow="visible">
            <path d="M 0 0m 43.47 18.810001 h -8.82 v 36.09 h -8.1 c -6.84 -8.189999 -16.560001 -23.67 -23.94 -34.83 c -0.18000007 -0.3600006 -0.6300001 -0.9000015 -0.6300001 -1.1700001 c 0 -0.7200012 1.98 -2.9700012 2.6100001 -3.6900005 c 0.4499998 -0.45000076 0.80999994 -0.6300001 2.9700003 -0.6300001 h 15.930001 v -3.6000004 c 0 -7.4700003 -3.42 -7.8300004 -8.370001 -8.1 c -0.9000006 -0.53999996 -0.9000006 -2.52 0 -3.0600002 c 7.379999 0.09 10.440001 0.18 14.040001 0.18 c 3.6000004 0 6.4800014 -0.09 13.859999 -0.18 c 0.9000015 0.54 0.9000015 2.5200002 0 3.0600002 c -4.950001 0.26999998 -8.369999 0.6300001 -8.369999 8.1 v 3.6000004 h 7.5600014 c 1.2599983 0 2.6100006 1.71 2.6100006 2.79 c 0 0.8999996 -0.3600006 1.4400005 -1.3500023 1.4400005 Z m -19.98 26.279999 v -26.279999 h -16.560001 c 4.5 7.5599995 11.790001 19.8 16.560001 26.279999 Z "/>
        </symbol>
    </defs>
    <defs id="tilings">
        <pattern id="tECA181F17CBF2FD4F63FEFCB4FCD2C76" width="30" height="30" patternUnits="userSpaceOnUse" viewBox="0 0 30.000 30.000">
            <g>
                <g class="typst-group">
                    <g>
                        <path class="typst-shape" fill="#ff41360d" fill-rule="nonzero" d="M 0 0v 30 h 30 v -30 Z "/>
                    </g>
                </g>
                <path class="typst-shape" fill="none" stroke="#ff4136" stroke-width="0.1" stroke-linecap="butt" stroke-linejoin="miter" stroke-miterlimit="4" transform="matrix(1 0 0 1 7.5 7.5)" d="M 0 0l 15 15 "/>
                <path class="typst-shape" fill="none" stroke="#ff4136" stroke-width="0.1" stroke-linecap="butt" stroke-linejoin="miter" stroke-miterlimit="4" transform="matrix(1 0 0 1 7.5 22.5)" d="M 0 0l 15 -15 "/>
            </g>
        </pattern>
        <pattern id="tD18B65C9CD3CC9E3000D534E3D62BB9A" width="30" height="30" patternUnits="userSpaceOnUse" viewBox="0 0 30.000 30.000">
            <g>
                <g class="typst-group">
                    <g>
                        <path class="typst-shape" fill="#2ecc400d" fill-rule="nonzero" d="M 0 0v 30 h 30 v -30 Z "/>
                    </g>
                </g>
                <path class="typst-shape" fill="none" stroke="#2ecc40" stroke-width="0.1" stroke-linecap="butt" stroke-linejoin="miter" stroke-miterlimit="4" transform="matrix(1 0 0 1 7.5 15)" d="M 0 0h 15 "/>
                <path class="typst-shape" fill="none" stroke="#2ecc40" stroke-width="0.1" stroke-linecap="butt" stroke-linejoin="miter" stroke-miterlimit="4" transform="matrix(1 0 0 1 15 7.5)" d="M 0 0v 15 "/>
            </g>
        </pattern>
    </defs>
    <defs id="tilings-refs">
        <pattern patternTransform="matrix(1 0 0 1 0 0)" id="p1E9398BAB0C40EFC56122C7413D0F6DB" href="#tECA181F17CBF2FD4F63FEFCB4FCD2C76" xlink:href="#tECA181F17CBF2FD4F63FEFCB4FCD2C76"/>
        <pattern patternTransform="matrix(1 0 0 1 0 0)" id="p509D8B23F98B314EBC75F8528C4C0704" href="#tD18B65C9CD3CC9E3000D534E3D62BB9A" xlink:href="#tD18B65C9CD3CC9E3000D534E3D62BB9A"/>
    </defs>
</svg>

<svg class="typst-doc" viewBox="0 0 595.2755905511812 841.8897637795276" width="595.2755905511812pt" height="841.8897637795276pt" xmlns="http://www.w3.org/2000/svg" xmlns:xlink="http://www.w3.org/1999/xlink" xmlns:h5="http://www.w3.org/1999/xhtml">
    <path class="typst-shape" fill="#ffffff" fill-rule="nonzero" d="M 0 0 L 0 841.8898 L 595.2756 841.8898 L 595.2756 0 Z "/>
    <g>
        <g transform="translate(70.86614173228347 70.86614173228347)">
            <g class="typst-group">
                <g>
                    <g transform="translate(0 350.0787401574803)">
                        <path class="typst-shape" fill="none" stroke="#000000" stroke-width="1" stroke-linecap="butt" stroke-linejoin="miter" stroke-miterlimit="4" d="M 0 0 L 453.5433 0 "/>
                    </g>
                    <g transform="translate(-5 345.0787401574803)">
                        <g class="typst-group">
                            <g>
                                <g transform="translate(-0 -0)">
                                    <path class="typst-shape" fill="url(#p66BC1ACEBEA5C6998C7490CA09760A00)" fill-rule="nonzero" stroke="#ff4136" stroke-width="1" stroke-linecap="butt" stroke-linejoin="miter" stroke-miterlimit="4" d="M 0 0 L 0 10 L 463.5433 10 L 463.5433 0 Z "/>
                                </g>
                            </g>
                        </g>
                    </g>
                    <g transform="translate(226.77165354330708 0)">
                        <path class="typst-shape" fill="none" stroke="#000000" stroke-width="1" stroke-linecap="butt" stroke-linejoin="miter" stroke-miterlimit="4" d="M 0 0 L 0 700.1575 "/>
                    </g>
                    <g transform="translate(221.77165354330708 -5)">
                        <g class="typst-group">
                            <g>
                                <g transform="translate(-0 -0)">
                                    <path class="typst-shape" fill="url(#p66BC1ACEBEA5C6998C7490CA09760A00)" fill-rule="nonzero" stroke="#ff4136" stroke-width="1" stroke-linecap="butt" stroke-linejoin="miter" stroke-miterlimit="4" d="M 0 0 L 0 710.1575 L 10 710.1575 L 10 0 Z "/>
                                </g>
                            </g>
                        </g>
                    </g>
                    <g transform="translate(0 0)">
                        <g class="typst-group">
                            <g>
                                <g transform="translate(-0 -0)">
                                    <path class="typst-shape" fill="url(#p55E11A1058E5598A3D909D528C8D726B)" fill-rule="nonzero" stroke="#2ecc40" stroke-width="1" stroke-linecap="butt" stroke-linejoin="miter" stroke-miterlimit="4" d="M 0 0 L 0 345.07874 L 221.77165 345.07874 L 221.77165 0 Z "/>
                                </g>
                            </g>
                        </g>
                    </g>
                    <g transform="translate(231.77165354330708 0)">
                        <g class="typst-group">
                            <g>
                                <g transform="translate(-0 -0)">
                                    <path class="typst-shape" fill="url(#p55E11A1058E5598A3D909D528C8D726B)" fill-rule="nonzero" stroke="#2ecc40" stroke-width="1" stroke-linecap="butt" stroke-linejoin="miter" stroke-miterlimit="4" d="M 0 0 L 0 345.07874 L 221.77165 345.07874 L 221.77165 0 Z "/>
                                </g>
                            </g>
                        </g>
                    </g>
                    <g transform="translate(0 355.0787401574803)">
                        <g class="typst-group">
                            <g>
                                <g transform="translate(-0 -0)">
                                    <path class="typst-shape" fill="url(#p55E11A1058E5598A3D909D528C8D726B)" fill-rule="nonzero" stroke="#2ecc40" stroke-width="1" stroke-linecap="butt" stroke-linejoin="miter" stroke-miterlimit="4" d="M 0 0 L 0 345.07874 L 221.77165 345.07874 L 221.77165 0 Z "/>
                                </g>
                            </g>
                        </g>
                    </g>
                    <g transform="translate(231.77165354330708 355.0787401574803)">
                        <g class="typst-group">
                            <g>
                                <g transform="translate(-0 -0)">
                                    <path class="typst-shape" fill="url(#p55E11A1058E5598A3D909D528C8D726B)" fill-rule="nonzero" stroke="#2ecc40" stroke-width="1" stroke-linecap="butt" stroke-linejoin="miter" stroke-miterlimit="4" d="M 0 0 L 0 345.07874 L 221.77165 345.07874 L 221.77165 0 Z "/>
                                </g>
                            </g>
                        </g>
                    </g>
                </g>
            </g>
        </g>
        <g transform="translate(161.12196850393698 274.93051181102356)">
            <g class="typst-text" transform="scale(1, -1)">
                <use xlink:href="#g337B94C1D921FEBDE2BC70509812921D" x="0" fill="#000000" fill-rule="nonzero"/>
            </g>
        </g>
        <g transform="translate(387.8936220472441 274.93051181102356)">
            <g class="typst-text" transform="scale(1, -1)">
                <use xlink:href="#g88A79064F1D047985CDBE4BB9A39E9CF" x="0" fill="#000000" fill-rule="nonzero"/>
            </g>
        </g>
        <g transform="translate(161.12196850393698 625.0092519685039)">
            <g class="typst-text" transform="scale(1, -1)">
                <use xlink:href="#g1B9E97705AF97D9B638668F60B910E39" x="0" fill="#000000" fill-rule="nonzero"/>
            </g>
        </g>
        <g transform="translate(387.8936220472441 625.0092519685039)">
            <g class="typst-text" transform="scale(1, -1)">
                <use xlink:href="#g804926F782E1E642F0D1765413158525" x="0" fill="#000000" fill-rule="nonzero"/>
            </g>
        </g>
    </g>
    <defs id="glyph">
        <symbol id="g337B94C1D921FEBDE2BC70509812921D" overflow="visible">
            <path d="M 33.030003 10.9800005 L 33.030003 43.47 C 33.030003 48.24 33.75 53.370003 33.75 53.370003 C 33.75 54.54 33.030003 54.9 32.22 54.9 C 31.320002 54.9 29.79 54.54 27.720001 53.550003 C 22.230001 51.030003 16.11 48.870003 8.280001 45.63 C 8.37 44.100002 9 42.66 10.26 41.760002 C 15.120001 43.83 18.36 44.010002 19.62 44.010002 C 20.79 44.010002 21.33 43.65 21.33 39.15 L 21.33 10.9800005 C 21.33 3.5100002 17.01 3.15 12.06 2.88 C 11.160001 2.3400002 11.160001 0.36 12.06 -0.18 C 19.44 -0.09 23.67 0 27.27 0 C 30.87 0 34.920002 -0.09 42.300003 -0.18 C 43.2 0.36 43.2 2.3400002 42.300003 2.88 C 37.350002 3.15 33.030003 3.5100002 33.030003 10.9800005 Z "/>
        </symbol>
        <symbol id="g88A79064F1D047985CDBE4BB9A39E9CF" overflow="visible">
            <path d="M 4.5 40.86 C 4.5 38.61 6.57 36 9.81 36 C 12.42 36 15.030001 37.980003 15.030001 40.77 C 15.030001 41.22 14.85 41.850002 14.580001 42.66 C 14.31 43.29 14.040001 44.010002 14.040001 45 C 14.040001 47.070004 17.19 51.210003 21.51 51.210003 C 26.1 51.210003 29.250002 45.54 29.250002 40.140003 C 29.250002 34.11 28.890001 30.240002 24.12 25.740002 L 16.470001 18.45 C 5.3100004 7.8300004 3.7800002 5.3100004 3.5100002 2.88 L 3.8700001 0 L 38.61 0 C 39.690002 3.42 40.77 9.63 41.4 14.76 C 40.230003 15.3 39.420002 15.660001 37.350002 15.660001 C 35.370003 9.54 32.760002 7.11 28.710001 7.11 L 17.01 7.11 C 17.28 9.990001 18.18 12.42 21.150002 15.120001 L 26.460001 19.980001 C 37.170002 29.880001 40.77 32.04 40.77 40.41 C 40.77 49.77 32.850002 54.9 23.580002 54.9 C 10.71 54.9 4.5 46.440002 4.5 40.86 Z "/>
        </symbol>
        <symbol id="g1B9E97705AF97D9B638668F60B910E39" overflow="visible">
            <path d="M 22.320002 51.120003 C 26.1 51.120003 27.990002 48.960003 27.990002 44.730003 C 27.990002 37.890003 22.5 32.4 14.22 30.510002 L 14.85 26.910002 C 16.74 27.45 17.820002 27.630001 19.17 27.630001 C 23.85 27.630001 30.420002 26.28 30.420002 15.4800005 C 30.420002 5.13 24.300001 2.88 20.970001 2.88 C 17.460001 2.88 15.570001 5.13 14.400001 6.6600003 C 13.410001 8.01 11.88 9.990001 8.55 9.990001 C 5.76 9.990001 4.1400003 7.65 4.1400003 6.1200004 C 4.1400003 4.23 5.13 2.88 7.11 1.8900001 C 10.35 0.27 15.120001 -0.90000004 19.53 -0.90000004 C 30.150002 -0.90000004 42.030003 7.4700003 42.030003 19.980001 C 42.030003 26.460001 37.800003 32.13 30.240002 32.670002 C 34.2 34.65 38.61 39.420002 38.61 44.910004 C 38.61 48.870003 36.45 54.9 24.03 54.9 C 14.670001 54.9 10.89 51.750004 8.01 49.140003 C 6.03 47.34 5.4900002 44.910004 5.4900002 43.74 C 5.4900002 42.480003 5.94 40.41 8.910001 40.41 C 12.870001 40.41 13.950001 42.480003 14.490001 45.36 C 15.4800005 50.850002 19.26 51.120003 22.320002 51.120003 Z "/>
        </symbol>
        <symbol id="g804926F782E1E642F0D1765413158525" overflow="visible">
            <path d="M 43.47 18.810001 L 34.65 18.810001 L 34.65 54.9 L 26.550001 54.9 C 19.710001 46.710003 9.990001 31.230001 2.6100001 20.070002 C 2.43 19.710001 1.98 19.17 1.98 18.900002 C 1.98 18.18 3.96 15.93 4.59 15.210001 C 5.04 14.76 5.4 14.580001 7.5600004 14.580001 L 23.490002 14.580001 L 23.490002 10.9800005 C 23.490002 3.5100002 20.070002 3.15 15.120001 2.88 C 14.22 2.3400002 14.22 0.36 15.120001 -0.18 C 22.5 -0.09 25.560001 0 29.160002 0 C 32.760002 0 35.640003 -0.09 43.02 -0.18 C 43.920002 0.36 43.920002 2.3400002 43.02 2.88 C 38.07 3.15 34.65 3.5100002 34.65 10.9800005 L 34.65 14.580001 L 42.210003 14.580001 C 43.47 14.580001 44.820004 16.29 44.820004 17.37 C 44.820004 18.27 44.460003 18.810001 43.47 18.810001 Z M 23.490002 45.09 L 23.490002 18.810001 L 6.9300003 18.810001 C 11.43 26.37 18.720001 38.61 23.490002 45.09 Z "/>
        </symbol>
    </defs>
    <defs id="tilings">
        <pattern id="t2F67AF8BD27593D2058F42E652AA4BE7" width="30" height="30" patternUnits="userSpaceOnUse" viewBox="0 0 30.000 30.000">
            <g>
                <g transform="translate(0 0)">
                    <g class="typst-group">
                        <g>
                            <g transform="translate(-0 -0)">
                                <path class="typst-shape" fill="#ff41360d" fill-rule="nonzero" d="M 0 0 L 0 30 L 30 30 L 30 0 Z "/>
                            </g>
                        </g>
                    </g>
                </g>
                <g transform="translate(7.5 7.5)">
                    <path class="typst-shape" fill="none" stroke="#ff4136" stroke-width="0.1" stroke-linecap="butt" stroke-linejoin="miter" stroke-miterlimit="4" d="M 0 0 L 15 15 "/>
                </g>
                <g transform="translate(7.5 22.5)">
                    <path class="typst-shape" fill="none" stroke="#ff4136" stroke-width="0.1" stroke-linecap="butt" stroke-linejoin="miter" stroke-miterlimit="4" d="M 0 0 L 15 -15 "/>
                </g>
            </g>
        </pattern>
        <pattern id="tD06D5C9FDDE18B7ECBF28FBB1815F39E" width="30" height="30" patternUnits="userSpaceOnUse" viewBox="0 0 30.000 30.000">
            <g>
                <g transform="translate(0 0)">
                    <g class="typst-group">
                        <g>
                            <g transform="translate(-0 -0)">
                                <path class="typst-shape" fill="#2ecc400d" fill-rule="nonzero" d="M 0 0 L 0 30 L 30 30 L 30 0 Z "/>
                            </g>
                        </g>
                    </g>
                </g>
                <g transform="translate(7.5 15)">
                    <path class="typst-shape" fill="none" stroke="#2ecc40" stroke-width="0.1" stroke-linecap="butt" stroke-linejoin="miter" stroke-miterlimit="4" d="M 0 0 L 15 0 "/>
                </g>
                <g transform="translate(15 7.5)">
                    <path class="typst-shape" fill="none" stroke="#2ecc40" stroke-width="0.1" stroke-linecap="butt" stroke-linejoin="miter" stroke-miterlimit="4" d="M 0 0 L 0 15 "/>
                </g>
            </g>
        </pattern>
    </defs>
    <defs id="tilings-refs">
        <pattern patternTransform="matrix(1 0 0 1 0 0)" id="p66BC1ACEBEA5C6998C7490CA09760A00" href="#t2F67AF8BD27593D2058F42E652AA4BE7" xlink:href="#t2F67AF8BD27593D2058F42E652AA4BE7"/>
        <pattern patternTransform="matrix(1 0 0 1 0 0)" id="p55E11A1058E5598A3D909D528C8D726B" href="#tD06D5C9FDDE18B7ECBF28FBB1815F39E" xlink:href="#tD06D5C9FDDE18B7ECBF28FBB1815F39E"/>
    </defs>
</svg>
